bootstrap/usb-micro.svg

<svg xmlns="http://www.w3.org/2000/svg" width="16" height="16" fill="currentColor" class="bi bi-usb-micro" viewBox="0 0 16 16">
  <path d="M4.5 7a.5.5 0 0 0-.5.5v1a.5.5 0 0 0 .5.5h7a.5.5 0 0 0 .5-.5v-1a.5.5 0 0 0-.5-.5z"/>
  <path d="M2.707 4A1 1 0 0 0 2 4.293L.293 6A1 1 0 0 0 0 6.707V11a1 1 0 0 0 1 1h14a1 1 0 0 0 1-1V6.707A1 1 0 0 0 15.707 6L14 4.293A1 1 0 0 0 13.293 4zm0 1h10.586L15 6.707V11H1V6.707z"/>
</svg>

<svg viewBox="0 0 16 16" xmlns="http://www.w3.org/2000/svg"><g><path d="M4.5 7v0c-.28 0-.5.22-.5.5v1 0c0 .27.22.5.5.5h7v0c.27 0 .5-.23.5-.5v-1 0c0-.28-.23-.5-.5-.5h-7Z"/><path d="M2.7 4v0c-.27 0-.52.1-.71.29L.28 5.99h0c-.19.18-.3.44-.3.7v4.29 0c0 .55.44 1 1 1h14v0c.55 0 1-.45 1-1v-4.3 0c-.01-.27-.11-.52-.3-.71l-1.71-1.71v-.001c-.19-.19-.45-.3-.71-.3H2.67Zm0 1H13.28l1.7 1.7v4.29h-14v-4.3l1.7-1.71Z"/></g></svg>
